svg/emoji_u1f553.svg

<svg xmlns="http://www.w3.org/2000/svg" viewBox="0 0 128 128" width="512px" height="512px"><path d="M64 121.74c-31.84 0-57.73-25.9-57.73-57.73C6.27 32.17 32.16 6.27 64 6.27c31.83 0 57.73 25.9 57.73 57.74 0 31.83-25.89 57.73-57.73 57.73z" fill="#fff"/><path d="M64 .1C28.77.1.1 28.77.1 64s28.67 63.89 63.9 63.89S127.89 99.23 127.89 64C127.9 28.77 99.23.1 64 .1zm0 121.64c-31.84 0-57.73-25.9-57.73-57.73C6.27 32.17 32.16 6.27 64 6.27c31.83 0 57.73 25.9 57.73 57.74 0 31.83-25.89 57.73-57.73 57.73z" fill="#40c0e7"/><path d="M73.79 63.99c0-3.73-2.11-6.92-5.18-8.57V11.33H59.4v44.08c-3.07 1.65-5.18 4.85-5.18 8.58 0 5.41 4.37 9.78 9.78 9.78 1.89 0 3.64-.56 5.14-1.49l21.38 12.35 4.61-7.97-21.38-12.34c0-.11.04-.22.04-.33zm-11.24 3.4A3.687 3.687 0 0 1 60.32 64c0-.18.02-.36.05-.53.14-.95.63-1.77 1.35-2.34.63-.5 1.42-.81 2.29-.81 2.04 0 3.69 1.65 3.69 3.68 0 1.52-.92 2.83-2.24 3.39-.02.01-.04.01-.06.02a3.606 3.606 0 0 1-2.79 0c-.02 0-.04-.01-.06-.02z" fill="#2f2f2f"/><circle cx="113.93" cy="64.01" r="3.69" fill="#2f2f2f"/><ellipse transform="rotate(-29.975 107.253 39.041)" cx="107.24" cy="39.04" rx="3.68" ry="3.69" fill="#2f2f2f"/><ellipse transform="rotate(-60.007 88.966 20.76)" cx="88.97" cy="20.76" rx="3.68" ry="3.68" fill="#2f2f2f"/><ellipse transform="rotate(-29.991 39.038 20.757)" cx="39.03" cy="20.76" rx="3.68" ry="3.68" fill="#2f2f2f"/><ellipse transform="rotate(-59.994 20.755 39.032)" cx="20.76" cy="39.03" rx="3.68" ry="3.68" fill="#2f2f2f"/><path d="M14.06 60.32c-2.03 0-3.68 1.65-3.68 3.68 0 2.03 1.65 3.68 3.68 3.68 2.04 0 3.69-1.65 3.69-3.69 0-2.03-1.65-3.67-3.69-3.67zm4.85 25.46a3.688 3.688 0 0 0-1.34 5.03 3.682 3.682 0 0 0 5.03 1.35 3.691 3.691 0 0 0 1.35-5.04 3.688 3.688 0 0 0-5.04-1.34zm21.96 18.27a3.677 3.677 0 0 0-5.03 1.35 3.691 3.691 0 0 0 1.35 5.03 3.68 3.68 0 0 0 5.03-1.35c1.02-1.75.41-4.01-1.35-5.03zm23.12 6.2c-2.04 0-3.67 1.65-3.68 3.69.01 2.03 1.65 3.68 3.68 3.68 2.03 0 3.69-1.65 3.68-3.68a3.672 3.672 0 0 0-3.68-3.69zm23.13-6.19a3.66 3.66 0 0 0-1.34 5.03 3.682 3.682 0 0 0 5.03 1.35c1.76-1.01 2.37-3.28 1.35-5.03a3.694 3.694 0 0 0-5.04-1.35zm21.96-18.28a3.68 3.68 0 0 0-5.03 1.35c-1.02 1.77-.42 4 1.35 5.03 1.76 1.01 4.01.42 5.03-1.35 1.02-1.75.42-4.02-1.35-5.03z" fill="#2f2f2f"/></svg>

<?xml version="1.0" encoding="utf-8"?>
<!-- Generator: Adobe Illustrator 19.2.1, SVG Export Plug-In . SVG Version: 6.00 Build 0)  -->
<svg version="1.1" id="レイヤー_1" xmlns="http://www.w3.org/2000/svg" xmlns:xlink="http://www.w3.org/1999/xlink" x="0px"
	 y="0px" viewBox="0 0 128 128" style="enable-background:new 0 0 128 128;" xml:space="preserve">
<g>
	<path style="fill:#FFFFFF;" d="M64,121.74c-31.84,0-57.73-25.9-57.73-57.73C6.27,32.17,32.16,6.27,64,6.27
		c31.83,0,57.73,25.9,57.73,57.74C121.73,95.84,95.84,121.74,64,121.74z"/>
	<g>
		<path style="fill:#40C0E7;" d="M64,0.1C28.77,0.1,0.1,28.77,0.1,64c0,35.23,28.67,63.89,63.9,63.89
			c35.23,0,63.89-28.66,63.89-63.89C127.9,28.77,99.23,0.1,64,0.1z M64,121.74c-31.84,0-57.73-25.9-57.73-57.73
			C6.27,32.17,32.16,6.27,64,6.27c31.83,0,57.73,25.9,57.73,57.74C121.73,95.84,95.84,121.74,64,121.74z"/>
		<path style="fill:#2F2F2F;" d="M73.79,63.99c0-3.73-2.11-6.92-5.18-8.57V11.33H59.4v44.08c-3.07,1.65-5.18,4.85-5.18,8.58
			c0,5.41,4.37,9.78,9.78,9.78c1.89,0,3.64-0.56,5.14-1.49l21.38,12.35l4.61-7.97L73.75,64.32C73.75,64.21,73.79,64.1,73.79,63.99z
			 M62.55,67.39c-1.31-0.56-2.23-1.87-2.23-3.39c0-0.18,0.02-0.36,0.05-0.53c0.14-0.95,0.63-1.77,1.35-2.34
			c0.63-0.5,1.42-0.81,2.29-0.81c2.04,0,3.69,1.65,3.69,3.68c0,1.52-0.92,2.83-2.24,3.39c-0.02,0.01-0.04,0.01-0.06,0.02
			c-0.43,0.18-0.9,0.28-1.39,0.28c-0.5,0-0.97-0.1-1.4-0.28C62.59,67.41,62.57,67.4,62.55,67.39z"/>
		<circle style="fill:#2F2F2F;" cx="113.93" cy="64.01" r="3.69"/>
		
			<ellipse transform="matrix(0.8662 -0.4996 0.4996 0.8662 -5.1596 58.8055)" style="fill:#2F2F2F;" cx="107.24" cy="39.04" rx="3.68" ry="3.69"/>
		
			<ellipse transform="matrix(0.4999 -0.8661 0.8661 0.4999 26.5108 87.4356)" style="fill:#2F2F2F;" cx="88.97" cy="20.76" rx="3.68" ry="3.68"/>
		
			<ellipse transform="matrix(0.8661 -0.4999 0.4999 0.8661 -5.149 22.2944)" style="fill:#2F2F2F;" cx="39.03" cy="20.76" rx="3.68" ry="3.68"/>
		
			<ellipse transform="matrix(0.5001 -0.866 0.866 0.5001 -23.426 37.4874)" style="fill:#2F2F2F;" cx="20.76" cy="39.03" rx="3.68" ry="3.68"/>
		<path style="fill:#2F2F2F;" d="M14.06,60.32c-2.03,0-3.68,1.65-3.68,3.68c0,2.03,1.65,3.68,3.68,3.68c2.04,0,3.69-1.65,3.69-3.69
			C17.75,61.96,16.1,60.32,14.06,60.32z"/>
		<path style="fill:#2F2F2F;" d="M18.91,85.78c-1.75,1.02-2.36,3.27-1.34,5.03c1.02,1.77,3.27,2.36,5.03,1.35
			c1.76-1.02,2.37-3.27,1.35-5.04C22.93,85.36,20.68,84.76,18.91,85.78z"/>
		<path style="fill:#2F2F2F;" d="M40.87,104.05c-1.77-1.02-4.02-0.41-5.03,1.35c-1.01,1.76-0.41,4.01,1.35,5.03
			c1.76,1.02,4.02,0.41,5.03-1.35C43.24,107.33,42.63,105.07,40.87,104.05z"/>
		<path style="fill:#2F2F2F;" d="M63.99,110.25c-2.04,0-3.67,1.65-3.68,3.69c0.01,2.03,1.65,3.68,3.68,3.68
			c2.03,0,3.69-1.65,3.68-3.68C67.68,111.9,66.03,110.25,63.99,110.25z"/>
		<path style="fill:#2F2F2F;" d="M87.12,104.06c-1.77,1.02-2.37,3.26-1.34,5.03c1.02,1.76,3.27,2.37,5.03,1.35
			c1.76-1.01,2.37-3.28,1.35-5.03C91.14,103.65,88.88,103.04,87.12,104.06z"/>
		<path style="fill:#2F2F2F;" d="M109.08,85.78c-1.76-1.02-4.02-0.41-5.03,1.35c-1.02,1.77-0.42,4,1.35,5.03
			c1.76,1.01,4.01,0.42,5.03-1.35C111.45,89.06,110.85,86.79,109.08,85.78z"/>
	</g>
</g>
</svg>
